images/logo.svg

<svg width="161" height="91" viewBox="0 0 161 91" fill="none" xmlns="http://www.w3.org/2000/svg">
<g clip-path="url(#clip0_1_2)">
<line x1="47" y1="43.9929" x2="47" y2="79.0071" stroke="#7BB332" stroke-width="3"/>
<line x1="14" y1="39.9936" x2="14" y2="79.0064" stroke="#7BB332" stroke-width="3"/>
<line x1="25" y1="20.9957" x2="25" y2="79.0043" stroke="#7BB332" stroke-width="3"/>
<line x1="36" y1="14.9961" x2="36" y2="79.0039" stroke="#7BB332" stroke-width="3"/>
</g>
<g clip-path="url(#clip1_1_2)">
<path d="M67.9492 56.0938V76H65.3105V56.0938H67.9492ZM79.9668 56.0938L71.6953 65.377L67.0469 70.2031L66.6094 67.3867L70.1094 63.5312L76.7949 56.0938H79.9668ZM77.4238 76L70.0547 66.293L71.627 64.2012L80.5684 76H77.4238ZM91.2324 73.4707V65.8555C91.2324 65.2721 91.1139 64.7663 90.877 64.3379C90.6491 63.9004 90.3027 63.5632 89.8379 63.3262C89.373 63.0892 88.7988 62.9707 88.1152 62.9707C87.4772 62.9707 86.9167 63.0801 86.4336 63.2988C85.9596 63.5176 85.5859 63.8047 85.3125 64.1602C85.0482 64.5156 84.916 64.8984 84.916 65.3086H82.3867C82.3867 64.7799 82.5234 64.2559 82.7969 63.7363C83.0703 63.2168 83.4622 62.7474 83.9727 62.3281C84.4922 61.8997 85.112 61.5625 85.832 61.3164C86.5612 61.0612 87.3724 60.9336 88.2656 60.9336C89.3411 60.9336 90.2891 61.1159 91.1094 61.4805C91.9388 61.8451 92.5859 62.3965 93.0508 63.1348C93.5247 63.8639 93.7617 64.7799 93.7617 65.8828V72.7734C93.7617 73.2656 93.8027 73.7897 93.8848 74.3457C93.9759 74.9017 94.1081 75.3802 94.2812 75.7812V76H91.6426C91.515 75.7083 91.4147 75.321 91.3418 74.8379C91.2689 74.3457 91.2324 73.89 91.2324 73.4707ZM91.6699 67.0312L91.6973 68.8086H89.1406C88.4206 68.8086 87.778 68.8678 87.2129 68.9863C86.6478 69.0957 86.1738 69.2643 85.791 69.4922C85.4082 69.7201 85.1165 70.0072 84.916 70.3535C84.7155 70.6908 84.6152 71.0872 84.6152 71.543C84.6152 72.0078 84.7201 72.4316 84.9297 72.8145C85.1393 73.1973 85.4538 73.5026 85.873 73.7305C86.3014 73.9492 86.8255 74.0586 87.4453 74.0586C88.2201 74.0586 88.9036 73.8945 89.4961 73.5664C90.0885 73.2383 90.5579 72.8372 90.9043 72.3633C91.2598 71.8893 91.4512 71.429 91.4785 70.9824L92.5586 72.1992C92.4948 72.582 92.3216 73.0059 92.0391 73.4707C91.7565 73.9355 91.3783 74.3822 90.9043 74.8105C90.4395 75.2298 89.8835 75.5807 89.2363 75.8633C88.5983 76.1367 87.8783 76.2734 87.0762 76.2734C86.0736 76.2734 85.194 76.0775 84.4375 75.6855C83.6901 75.2936 83.1068 74.7695 82.6875 74.1133C82.2773 73.4479 82.0723 72.7051 82.0723 71.8848C82.0723 71.0918 82.2272 70.3945 82.5371 69.793C82.847 69.1823 83.2936 68.6764 83.877 68.2754C84.4603 67.8652 85.1621 67.5553 85.9824 67.3457C86.8027 67.1361 87.7188 67.0312 88.7305 67.0312H91.6699ZM106.354 72.0762C106.354 71.7116 106.271 71.3743 106.107 71.0645C105.952 70.7454 105.629 70.4583 105.137 70.2031C104.654 69.9388 103.924 69.7109 102.949 69.5195C102.129 69.3464 101.386 69.1413 100.721 68.9043C100.064 68.6673 99.5039 68.3802 99.0391 68.043C98.5833 67.7057 98.2324 67.3092 97.9863 66.8535C97.7402 66.3978 97.6172 65.8646 97.6172 65.2539C97.6172 64.6706 97.7448 64.1191 98 63.5996C98.2643 63.0801 98.6335 62.6198 99.1074 62.2188C99.5905 61.8177 100.169 61.5033 100.844 61.2754C101.518 61.0475 102.27 60.9336 103.1 60.9336C104.285 60.9336 105.296 61.1432 106.135 61.5625C106.973 61.9818 107.616 62.5423 108.062 63.2441C108.509 63.9368 108.732 64.707 108.732 65.5547H106.203C106.203 65.1445 106.08 64.748 105.834 64.3652C105.597 63.9733 105.246 63.6497 104.781 63.3945C104.326 63.1393 103.765 63.0117 103.1 63.0117C102.398 63.0117 101.828 63.1211 101.391 63.3398C100.962 63.5495 100.648 63.8184 100.447 64.1465C100.256 64.4746 100.16 64.821 100.16 65.1855C100.16 65.459 100.206 65.7051 100.297 65.9238C100.397 66.1335 100.57 66.3294 100.816 66.5117C101.062 66.6849 101.409 66.849 101.855 67.0039C102.302 67.1589 102.872 67.3138 103.564 67.4688C104.777 67.7422 105.775 68.0703 106.559 68.4531C107.342 68.8359 107.926 69.3053 108.309 69.8613C108.691 70.4173 108.883 71.0918 108.883 71.8848C108.883 72.5319 108.746 73.1243 108.473 73.6621C108.208 74.1999 107.821 74.6647 107.311 75.0566C106.809 75.4395 106.208 75.7402 105.506 75.959C104.813 76.1686 104.034 76.2734 103.168 76.2734C101.865 76.2734 100.762 76.041 99.8594 75.5762C98.957 75.1113 98.2734 74.5098 97.8086 73.7715C97.3438 73.0332 97.1113 72.2539 97.1113 71.4336H99.6543C99.6908 72.1263 99.8913 72.6777 100.256 73.0879C100.62 73.4889 101.067 73.776 101.596 73.9492C102.124 74.1133 102.648 74.1953 103.168 74.1953C103.861 74.1953 104.439 74.1042 104.904 73.9219C105.378 73.7396 105.738 73.4889 105.984 73.1699C106.23 72.8509 106.354 72.4863 106.354 72.0762ZM112.191 55H114.734V73.1289L114.516 76H112.191V55ZM124.729 68.4805V68.7676C124.729 69.8431 124.601 70.8411 124.346 71.7617C124.09 72.6732 123.717 73.4661 123.225 74.1406C122.732 74.8151 122.131 75.3392 121.42 75.7129C120.709 76.0866 119.893 76.2734 118.973 76.2734C118.034 76.2734 117.209 76.1139 116.498 75.7949C115.796 75.4668 115.204 74.9974 114.721 74.3867C114.238 73.776 113.85 73.0378 113.559 72.1719C113.276 71.306 113.08 70.3307 112.971 69.2461V67.9883C113.08 66.8945 113.276 65.9147 113.559 65.0488C113.85 64.1829 114.238 63.4447 114.721 62.834C115.204 62.2142 115.796 61.7448 116.498 61.4258C117.2 61.0977 118.016 60.9336 118.945 60.9336C119.875 60.9336 120.7 61.1159 121.42 61.4805C122.14 61.8359 122.742 62.3464 123.225 63.0117C123.717 63.6771 124.09 64.4746 124.346 65.4043C124.601 66.3249 124.729 67.3503 124.729 68.4805ZM122.186 68.7676V68.4805C122.186 67.7422 122.117 67.0495 121.98 66.4023C121.844 65.7461 121.625 65.1719 121.324 64.6797C121.023 64.1784 120.627 63.7865 120.135 63.5039C119.643 63.2122 119.036 63.0664 118.316 63.0664C117.678 63.0664 117.122 63.1758 116.648 63.3945C116.184 63.6133 115.787 63.9095 115.459 64.2832C115.131 64.6478 114.862 65.0671 114.652 65.541C114.452 66.0059 114.301 66.4889 114.201 66.9902V70.2852C114.347 70.9232 114.584 71.5384 114.912 72.1309C115.249 72.7142 115.696 73.1927 116.252 73.5664C116.817 73.9401 117.514 74.127 118.344 74.127C119.027 74.127 119.611 73.9902 120.094 73.7168C120.586 73.4342 120.982 73.0469 121.283 72.5547C121.593 72.0625 121.821 71.4928 121.967 70.8457C122.113 70.1986 122.186 69.5059 122.186 68.7676ZM130.676 61.207V76H128.133V61.207H130.676ZM127.941 57.2832C127.941 56.873 128.064 56.5267 128.311 56.2441C128.566 55.9616 128.939 55.8203 129.432 55.8203C129.915 55.8203 130.284 55.9616 130.539 56.2441C130.803 56.5267 130.936 56.873 130.936 57.2832C130.936 57.6751 130.803 58.0124 130.539 58.2949C130.284 58.5684 129.915 58.7051 129.432 58.7051C128.939 58.7051 128.566 58.5684 128.311 58.2949C128.064 58.0124 127.941 57.6751 127.941 57.2832ZM145.756 73.9219V76H134.996V73.9219H145.756ZM145.359 62.998L135.57 76H134.025V74.1406L143.746 61.207H145.359V62.998ZM144.238 61.207V63.2988H134.135V61.207H144.238Z" fill="#F2F2F2"/>
</g>
<defs>
<clipPath id="clip0_1_2">
<rect width="39" height="67" fill="white" transform="translate(12 12)"/>
</clipPath>
<clipPath id="clip1_1_2">
<rect width="86" height="24" fill="white" transform="translate(63 55)"/>
</clipPath>
</defs>
</svg>

<svg width="161" height="91" fill="none" xmlns="http://www.w3.org/2000/svg"><g clip-path="url(#a)" stroke="#7BB332" stroke-width="3"><path d="M47 43.993v35.014M14 39.994v39.012M25 20.996v58.008M36 14.996v64.008"/></g><g clip-path="url(#b)"><path d="M67.95 56.094V76h-2.64V56.094h2.64Zm12.017 0-8.272 9.283-4.648 4.826-.438-2.816 3.5-3.856 6.686-7.437h3.172ZM77.424 76l-7.37-9.707 1.573-2.092L80.568 76h-3.144Zm13.808-2.53v-7.614c0-.584-.118-1.09-.355-1.518a2.327 2.327 0 0 0-1.04-1.012c-.464-.237-1.038-.355-1.722-.355-.638 0-1.198.11-1.681.328-.474.219-.848.506-1.121.861a1.887 1.887 0 0 0-.397 1.149h-2.53c0-.53.137-1.053.41-1.573.274-.52.666-.989 1.177-1.408a5.877 5.877 0 0 1 1.859-1.012c.73-.255 1.54-.382 2.434-.382 1.075 0 2.023.182 2.843.547a4.26 4.26 0 0 1 1.942 1.654c.474.729.71 1.645.71 2.748v6.89c0 .493.042 1.017.124 1.573.09.556.223 1.034.396 1.435V76h-2.638c-.128-.292-.228-.679-.301-1.162a9.375 9.375 0 0 1-.11-1.367Zm.438-6.439.027 1.778h-2.556c-.72 0-1.363.059-1.928.177-.565.11-1.04.278-1.422.506a2.405 2.405 0 0 0-.875.861c-.2.338-.3.734-.3 1.19 0 .465.104.889.314 1.271.21.383.524.689.943.917.428.218.953.328 1.572.328.775 0 1.459-.165 2.051-.493.593-.328 1.062-.729 1.408-1.203.356-.474.547-.934.575-1.38l1.08 1.216c-.064.383-.237.807-.52 1.272a6.08 6.08 0 0 1-1.135 1.34c-.465.419-1.02.77-1.668 1.052-.638.274-1.358.41-2.16.41-1.002 0-1.882-.195-2.638-.587-.748-.392-1.331-.917-1.75-1.573a4.161 4.161 0 0 1-.616-2.228c0-.793.155-1.49.465-2.092.31-.61.757-1.117 1.34-1.518.583-.41 1.285-.72 2.105-.93.82-.209 1.737-.314 2.749-.314h2.939Zm14.684 5.045a2.13 2.13 0 0 0-.247-1.011c-.155-.32-.478-.607-.97-.862-.483-.264-1.213-.492-2.188-.684a17.302 17.302 0 0 1-2.228-.615c-.657-.237-1.217-.524-1.682-.861a3.614 3.614 0 0 1-1.053-1.19c-.246-.455-.369-.988-.369-1.6 0-.582.128-1.134.383-1.653.264-.52.633-.98 1.107-1.381a5.38 5.38 0 0 1 1.737-.944c.674-.227 1.426-.341 2.256-.341 1.185 0 2.196.21 3.035.629.838.419 1.481.98 1.927 1.681.447.693.67 1.463.67 2.31h-2.529c0-.41-.123-.806-.369-1.189-.237-.392-.588-.715-1.053-.97-.455-.256-1.016-.383-1.681-.383-.702 0-1.272.11-1.709.328-.429.21-.743.478-.944.806a2.035 2.035 0 0 0-.287 1.04c0 .273.046.52.137.738.1.21.273.405.519.588.246.173.593.337 1.039.492.447.155 1.017.31 1.709.465 1.213.273 2.211.601 2.995.984.783.383 1.367.852 1.75 1.408.382.556.574 1.23.574 2.024a3.87 3.87 0 0 1-.41 1.777 3.951 3.951 0 0 1-1.162 1.395c-.502.382-1.103.683-1.805.902-.693.21-1.472.314-2.338.314-1.303 0-2.406-.232-3.309-.697-.902-.465-1.586-1.066-2.05-1.804-.465-.739-.698-1.518-.698-2.338h2.543c.037.692.237 1.244.602 1.654.364.4.811.688 1.34.861a5.274 5.274 0 0 0 1.572.246c.693 0 1.271-.09 1.736-.273.474-.182.834-.433 1.08-.752.246-.32.37-.684.37-1.094ZM112.191 55h2.543v18.129L114.516 76h-2.325V55Zm12.538 13.48v.288c0 1.075-.128 2.073-.383 2.994-.256.911-.629 1.704-1.121 2.379a5.231 5.231 0 0 1-1.805 1.572c-.711.374-1.527.56-2.447.56-.939 0-1.764-.16-2.475-.478a4.86 4.86 0 0 1-1.777-1.408c-.483-.611-.871-1.35-1.162-2.215-.283-.866-.479-1.841-.588-2.926v-1.258c.109-1.094.305-2.073.588-2.94.291-.865.679-1.603 1.162-2.214a4.679 4.679 0 0 1 1.777-1.408c.702-.328 1.518-.492 2.447-.492.93 0 1.755.182 2.475.547.72.355 1.322.865 1.805 1.53.492.666.865 1.464 1.121 2.393.255.92.383 1.946.383 3.077Zm-2.543.288v-.287c0-.739-.069-1.431-.206-2.079a5.36 5.36 0 0 0-.656-1.722 3.27 3.27 0 0 0-1.189-1.176c-.492-.292-1.099-.438-1.819-.438-.638 0-1.194.11-1.668.328a3.613 3.613 0 0 0-1.189.89 4.73 4.73 0 0 0-.807 1.257c-.2.465-.351.948-.451 1.45v3.294c.146.638.383 1.253.711 1.846a4.298 4.298 0 0 0 1.34 1.435c.565.374 1.262.561 2.092.561.683 0 1.267-.137 1.75-.41.492-.283.888-.67 1.189-1.162.31-.493.538-1.062.684-1.71.146-.646.219-1.34.219-2.077Zm8.49-7.561V76h-2.543V61.207h2.543Zm-2.735-3.924c0-.41.123-.756.37-1.039.255-.282.628-.424 1.121-.424.483 0 .852.142 1.107.424.264.283.397.629.397 1.04 0 .391-.133.728-.397 1.01-.255.274-.624.411-1.107.411-.493 0-.866-.137-1.121-.41a1.485 1.485 0 0 1-.37-1.012Zm17.815 16.639V76h-10.76v-2.078h10.76Zm-.397-10.924L135.57 76h-1.545v-1.86l9.721-12.933h1.613v1.791Zm-1.121-1.791v2.092h-10.103v-2.092h10.103Z" fill="#F2F2F2"/></g><defs><clipPath id="a"><path fill="#fff" transform="translate(12 12)" d="M0 0h39v67H0z"/></clipPath><clipPath id="b"><path fill="#fff" transform="translate(63 55)" d="M0 0h86v24H0z"/></clipPath></defs></svg>
